packages/assets/static/images/icons/bird.svg

<svg width="24" height="24" viewBox="0 0 24 24" xmlns="http://www.w3.org/2000/svg">
<path d="M16.8752 7.125C16.8752 7.3475 16.8093 7.56501 16.6856 7.75002C16.562 7.93502 16.3863 8.07922 16.1808 8.16436C15.9752 8.24951 15.749 8.27179 15.5308 8.22838C15.3125 8.18498 15.1121 8.07783 14.9548 7.9205C14.7974 7.76316 14.6903 7.56271 14.6469 7.34448C14.6035 7.12625 14.6257 6.90005 14.7109 6.69448C14.796 6.48891 14.9402 6.31321 15.1252 6.1896C15.3102 6.06598 15.5277 6 15.7502 6C16.0486 6 16.3348 6.11853 16.5457 6.3295C16.7567 6.54048 16.8752 6.82663 16.8752 7.125ZM22.8752 8.25C22.8753 8.37351 22.8449 8.49512 22.7867 8.60405C22.7285 8.71297 22.6442 8.80583 22.5415 8.87438L20.6252 10.1512V12C20.6225 14.585 19.5944 17.0634 17.7665 18.8913C15.9386 20.7192 13.4603 21.7473 10.8752 21.75H2.62525C2.34265 21.75 2.06579 21.6702 1.82658 21.5197C1.58737 21.3692 1.39553 21.1543 1.27316 20.8995C1.15079 20.6448 1.10287 20.3607 1.13492 20.0799C1.16697 19.7991 1.27768 19.5331 1.45431 19.3125L1.46368 19.3013L9.37525 9.80906V7.95844C9.37525 4.82531 11.8868 2.265 14.9731 2.25H15.0002C16.1952 2.24964 17.3591 2.62982 18.3235 3.33542C19.2878 4.04102 20.0024 5.03538 20.3637 6.17438L22.5415 7.62563C22.6442 7.69417 22.7285 7.78703 22.7867 7.89595C22.8449 8.00488 22.8753 8.12649 22.8752 8.25ZM20.7734 8.25L19.3034 7.26938C19.15 7.16739 19.0396 7.01256 18.9931 6.83438C18.7627 5.95086 18.2458 5.16873 17.5232 4.61056C16.8006 4.05239 15.9133 3.74973 15.0002 3.75H14.9796C12.7165 3.76125 10.8752 5.64844 10.8752 7.95844V10.08C10.8755 10.2557 10.8142 10.4259 10.7018 10.5609L2.62525 20.25H5.14712L11.7977 12.27C11.8601 12.1921 11.9373 12.1275 12.0249 12.0799C12.1125 12.0322 12.2087 12.0025 12.308 11.9925C12.4072 11.9825 12.5074 11.9924 12.6028 12.0216C12.6981 12.0507 12.7867 12.0987 12.8633 12.1625C12.94 12.2263 13.0031 12.3048 13.049 12.3933C13.0949 12.4819 13.1227 12.5787 13.1308 12.6781C13.1389 12.7775 13.127 12.8775 13.096 12.9723C13.0649 13.067 13.0153 13.1546 12.9499 13.23L7.10181 20.25H10.8752C13.0625 20.2475 15.1595 19.3775 16.7061 17.8309C18.2528 16.2843 19.1228 14.1873 19.1252 12V9.75C19.1252 9.62649 19.1556 9.50488 19.2138 9.39595C19.272 9.28703 19.3563 9.19417 19.459 9.12562L20.7734 8.25Z"/>
</svg>

<svg viewBox="0 0 24 24" xmlns="http://www.w3.org/2000/svg" aria-hidden="true" fill="currentColor"><path d="M16.875 7.125a1.124 1.124 0 1 1-2.249 0 1.124 1.124 0 0 1 2.25 0m6 1.125a.75.75 0 0 1-.334.624l-1.916 1.277V12a9.76 9.76 0 0 1-9.75 9.75h-8.25a1.5 1.5 0 0 1-1.17-2.437l.009-.012 7.91-9.491V7.96c0-3.134 2.512-5.694 5.598-5.709H15a5.625 5.625 0 0 1 5.364 3.924l2.177 1.452a.75.75 0 0 1 .334.624m-2.102 0-1.47-.98a.75.75 0 0 1-.31-.436A4.125 4.125 0 0 0 15 3.75h-.02c-2.264.011-4.105 1.898-4.105 4.208v2.122a.75.75 0 0 1-.173.48l-8.077 9.69h2.522l6.65-7.98a.75.75 0 1 1 1.153.96l-5.848 7.02h3.773a8.26 8.26 0 0 0 8.25-8.25V9.75a.75.75 0 0 1 .334-.624z"/></svg>
